src/assets/ExternalLink.svg

<svg fill="none" height="12" viewBox="0 0 12 12" width="12" xmlns="http://www.w3.org/2000/svg"><path d="m1.99989 1.75c0-.41421.33578-.75.75-.75h6.75c.82841 0 1.50001.67157 1.50001 1.5v6.75c0 .41421-.3358.75-.75.75-.41423 0-.75001-.33579-.75001-.75v-5.08567c0-.22273-.26929-.33427-.42678-.17678l-7.51251 7.51255c-.29289.2928-.767763.2928-1.060656 0-.292893-.2929-.292894-.7678-.000001-1.0607l7.512617-7.51262c.15749-.15749.04595-.42678-.17677-.42678h-5.0859c-.41422 0-.75-.33579-.75-.75z" fill="#000" fill-opacity=".33"/></svg>

<svg width="12" height="12" viewBox="0 0 12 12" fill="none" xmlns="http://www.w3.org/2000/svg">
<g style="mix-blend-mode:color-burn">
<path d="M1.99989 1.75C1.99989 1.33579 2.33567 1 2.74989 1H9.49989C10.3283 1 10.9999 1.67157 10.9999 2.5V9.25C10.9999 9.66421 10.6641 10 10.2499 10C9.83567 10 9.49989 9.66421 9.49989 9.25V4.16433C9.49989 3.9416 9.2306 3.83006 9.07311 3.98755L1.5606 11.5001C1.26771 11.7929 0.792837 11.7929 0.499944 11.5001C0.207051 11.2072 0.20705 10.7323 0.499943 10.4394L8.01256 2.92678C8.17005 2.76929 8.05851 2.5 7.83579 2.5H2.74989C2.33567 2.5 1.99989 2.16421 1.99989 1.75Z" fill="black" fill-opacity="0.33"/>
</g>
</svg>
